other/translator_cs_fr.svg

<svg xmlns="http://www.w3.org/2000/svg" viewBox="0 0 48 48"><defs><style>.a{fill:none;stroke:#fff;stroke-linecap:round;stroke-linejoin:round;}</style></defs>
    <path
       d="M11.7855852279 41.798508416C11.8765643522 41.1284793175 11.7624393574 41.1716905567 12.125888448 40.8858808568C12.5126967834 40.5817019299 13.3721372665 40.1918855974 13.3721372665 40.1918855974C16.2060878488 39.0327572774 18.40262744 38.123894224 19.521245408 37.3125044C19.973364592 36.987830192 20.541396608 36.425712096 20.662927664 36.187972512C20.755776208 36.00848504 20.772926576 35.846147936 20.772926576 35.1391388C20.772926576 35.1391388 20.772926576 34.310302912 20.772926576 34.310302912C20.772926576 34.310302912 20.477230576 33.968478336 20.477230576 33.968478336C19.891752496 33.278619568 19.381972592 32.31080656 19.092190512 31.337375328C18.987809824 30.989636832 18.918321264 30.86781008 18.69240952 30.641898336C18.373649232 30.340584112 18.25182248 30.126204512 18.199779984 29.795616384C18.153355712 29.505834304 18.275182464 29.088607248 18.495475984 28.76393304C18.495475984 28.76393304 18.657813088 28.532107376 18.657813088 28.532107376C18.657813088 28.532107376 18.692705216 26.497718896 18.692705216 26.497718896C18.721683424 24.614135376 18.733215568 24.428733984 18.85504232 24.028657296C19.249205088 22.707191872 20.0836592 21.9363124 21.497973168 21.58295568C21.938560208 21.472956768 22.176004096 21.455510704 23.0627964 21.455510704C23.949588704 21.455510704 24.187032592 21.472956768 24.627619632 21.58295568C26.088062176 21.94814024 26.910984144 22.753616144 27.27055048 24.162016192C27.380549392 24.585157168 27.397995456 24.85187496 27.42135544 26.5787396C27.42135544 26.5787396 27.450333648 28.520279536 27.450333648 28.520279536C27.450333648 28.520279536 27.600842912 28.781083408 27.600842912 28.781083408C28.047048176 29.528602896 28.000623904 30.004082064 27.432887584 30.600796592C27.154637648 30.890578672 27.085149088 31.000577584 26.9807684 31.365762144C26.702518464 32.316129088 26.209888928 33.249345664 25.583900496 34.002779072C25.583900496 34.002779072 25.294118416 34.350517568 25.294118416 34.350517568C25.294118416 34.350517568 25.294118416 35.132929184 25.294118416 35.132929184C25.294118416 35.677601216 25.317182704 35.973297216 25.375434816 36.112570032C25.792661872 37.109361248 29.5644222537 38.7464440072 32.7894300863 40.3155261487C33.1120344223 40.4488850447 33.5719590936 40.6195057764 33.9303683711 40.9969315595C34.2318044219 41.3143609198 34.2333376056 41.751788448 34.2333376056 41.751788448"
        class="a" />
    <path
       d="M8.820652288 18.45244814"
        class="a" />
    <path
       d="M8.820652288 12.21016702C8.820652288 12.21016702 11.941792848 12.21016702 11.941792848 12.21016702"
       class="a" />
    <path
       d="M8.820652288 15.33130758C8.820652288 15.33130758 10.849393652 15.33130758 10.849393652 15.33130758"
       class="a" />
    <path
       d="M8.820652288 12.21016702C8.820652288 12.21016702 8.820652288 18.45244814 8.820652288 18.45244814"
       class="a" />
  <path
     d="M14.252225 18.42268C14.252225 18.42268 14.252225 12.180399 14.252225 12.180399C14.252225 12.180399 16.280966 12.180399 16.280966 12.180399C17.451394 12.180399 18.387736 13.116741 18.387736 14.287169C18.387736 15.457597 17.451394 16.393939 16.280966 16.393939C16.280966 16.393939 14.252225 16.393939 14.252225 16.393939"
     class="a" />
    <path
         d="M16.358994928 16.3159126029C16.358994928 16.3159126029 18.387736292 18.42268014 18.387736292 18.42268014"
    class="a" />
  <path
     d="M35.516863 17.64001C35.907006 18.108181 36.375177 18.342266 37.077434 18.342266C37.077434 18.342266 38.013776 18.342266 38.013776 18.342266C38.87209 18.342266 39.574346 17.64001 39.574346 16.781696C39.574346 16.781696 39.574346 16.781696 39.574346 16.781696C39.574346 15.923382 38.87209 15.221126 38.013776 15.221126C38.013776 15.221126 36.999405 15.221126 36.999405 15.221126C36.141092 15.221126 35.438835 14.518869 35.438835 13.660555C35.438835 13.660555 35.438835 13.660555 35.438835 13.660555C35.438835 12.802242 36.141092 12.099985 36.999405 12.099985C36.999405 12.099985 37.935747 12.099985 37.935747 12.099985C38.638004 12.099985 39.106175 12.256042 39.496318 12.802242"
     class="a" />
     <path
     d="M33.571446 16.235499C33.571446 16.235499 33.571446 16.235499 33.571446 16.235499C33.571446 17.405926 32.635104 18.342269 31.464676 18.342269C31.464676 18.342269 31.464676 18.342269 31.464676 18.342269C30.294248 18.342269 29.357906 17.405926 29.357906 16.235499C29.357906 16.235499 29.357906 14.128729 29.357906 14.128729C29.357906 12.958301 30.294248 12.021958 31.464676 12.021958C31.464676 12.021958 31.464676 12.021958 31.464676 12.021958C32.635104 12.021958 33.493417 12.958301 33.493417 14.128729C33.493417 14.128729 33.493417 14.128729 33.493417 14.128729"
      class="a" />
</svg>

<svg xmlns="http://www.w3.org/2000/svg" viewBox="0 0 48 48"><defs><style>.a{fill:none;stroke:#fff;stroke-linecap:round;stroke-linejoin:round}</style></defs><path d="M11.786 41.799c.09-.67-.024-.627.34-.913.387-.304 1.246-.694 1.246-.694 2.834-1.16 5.03-2.068 6.15-2.88.451-.324 1.02-.886 1.14-1.124.094-.18.11-.342.11-1.049v-.829l-.295-.342c-.585-.69-1.095-1.657-1.385-2.63-.104-.348-.174-.47-.4-.696-.318-.301-.44-.516-.492-.846-.047-.29.075-.707.295-1.032l.163-.232.035-2.034c.029-1.884.04-2.07.162-2.47.394-1.32 1.229-2.092 2.643-2.445.44-.11.678-.127 1.565-.127.887 0 1.124.017 1.565.127 1.46.365 2.283 1.17 2.643 2.579.11.423.127.69.15 2.417l.03 1.941.15.261c.446.748.4 1.223-.168 1.82-.278.29-.348.4-.452.765a7.506 7.506 0 0 1-1.397 2.637l-.29.348v.782c0 .545.023.84.081.98.418.996 4.19 2.633 7.414 4.203.323.133.783.304 1.141.68.302.318.303.756.303.756M8.82 12.21h3.122M8.82 15.331h2.03M8.82 12.21v6.242M14.252 18.423V12.18h2.029c1.17 0 2.107.937 2.107 2.107 0 1.17-.937 2.107-2.107 2.107h-2.029M16.359 16.316l2.029 2.107M35.517 17.64c.39.468.858.702 1.56.702h.937c.858 0 1.56-.702 1.56-1.56 0 0 0 0 0 0 0-.859-.702-1.56-1.56-1.56h-1.015c-.858 0-1.56-.703-1.56-1.561 0 0 0 0 0 0 0-.859.702-1.561 1.56-1.561h.937c.702 0 1.17.156 1.56.702M33.571 16.235s0 0 0 0c0 1.17-.936 2.107-2.106 2.107 0 0 0 0 0 0a2.098 2.098 0 0 1-2.107-2.107V14.13c0-1.17.936-2.107 2.107-2.107 0 0 0 0 0 0 1.17 0 2.028.936 2.028 2.107 0 0 0 0 0 0" class="a"/></svg>
